img/logo.svg

<svg width="109" height="95" viewBox="0 0 109 95" fill="none" xmlns="http://www.w3.org/2000/svg">
<g filter="url('#filter0_d_20_2487')">
<path d="M87.0513 18.4365C86.291 17.8058 85.5462 17.1518 84.7703 16.5444C79.6418 12.48 73.8694 9.85601 67.4297 8.70364C64.4426 8.16639 61.4245 7.9873 58.3987 8.18196C49.4607 8.7815 41.6245 12.0517 34.921 18.0082C30.9098 21.5744 27.7986 25.8179 25.5408 30.6921C25.4167 30.9568 25.277 31.0425 24.9899 31.0425C21.8477 31.0347 18.7054 31.0347 15.5632 31.0425C15.2373 31.0425 15.1365 31.0269 15.2916 30.661C19.0468 21.6756 25.1296 14.7147 33.4779 9.76258C38.1486 6.99066 43.184 5.18424 48.5529 4.46012C62.2159 2.61477 74.1875 6.31325 84.3824 15.6802C85.2901 16.5133 86.1281 17.4165 86.9582 18.3197C86.997 18.3586 87.0203 18.3976 87.0513 18.4365Z" fill="#00B355"></path>
</g>
<g filter="url('#filter1_d_20_2487')">
<path d="M16.1914 65.1582C16.3465 65.1582 16.4628 65.1582 16.5791 65.1582C19.7425 65.1582 22.9059 65.166 26.0771 65.1504C26.4105 65.1504 26.5734 65.2517 26.7362 65.5399C30.0237 71.5465 34.5595 76.3689 40.3513 79.9915C44.8639 82.8195 49.7641 84.6425 55.0365 85.406C63.4801 86.6291 71.4894 85.2346 79.0259 81.2068C81.8404 79.7033 84.4223 77.8491 86.7794 75.6833C86.8647 75.6054 86.9499 75.5275 87.0507 75.4807C82.4296 80.7082 76.9014 84.6269 70.3962 87.1355C63.8988 89.6441 57.1842 90.4933 50.2758 89.7298C32.5048 87.7587 20.9055 75.6911 16.1914 65.1582Z" fill="#FF494B"></path>
</g>
<g filter="url('#filter2_d_20_2487')">
<path d="M33.2788 22.6301C35.893 19.5739 38.9494 17.0634 42.4092 15.0519C46.6912 12.5648 51.2914 10.9665 56.2017 10.4286C67.512 9.18892 77.3948 12.4401 85.7882 20.1664C89.0308 23.1524 91.583 26.6765 93.5611 30.6293C93.7628 31.0347 93.7628 31.0347 93.3284 31.0347C90.1323 31.0347 86.9441 31.0347 83.7481 31.0425C83.4843 31.0425 83.3369 30.9645 83.1973 30.7306C78.3722 22.5677 71.4061 17.1959 62.1749 15.1454C51.4543 12.7597 41.8584 15.3248 33.4727 22.4586C33.4107 22.5131 33.3486 22.5677 33.2788 22.6301Z" fill="#FF494B"></path>
</g>
<g filter="url('#filter3_d_20_2487')">
<path d="M92.6383 65.1667C86.7212 74.9029 78.3924 81.1914 67.2253 83.1293C53.8945 85.4407 42.6265 81.2069 33.3594 71.4396C33.5222 71.4006 33.5998 71.5252 33.6928 71.6108C38.5242 75.7823 44.0845 78.4363 50.4048 79.269C60.7189 80.631 69.7301 77.7125 77.392 70.6379C79.0748 69.0892 80.5328 67.338 81.8201 65.4546C81.9442 65.2756 82.045 65.1433 82.3009 65.1511C85.651 65.1589 88.9934 65.1589 92.3436 65.1589C92.4056 65.1433 92.4676 65.1511 92.6383 65.1667Z" fill="#00B355"></path>
</g>
<path d="M0 57.1633V38.686H3.93216C4.66617 38.686 5.26735 38.805 5.73572 39.043C6.20408 39.274 6.56759 39.6169 6.82624 40.0718C7.08489 40.5268 7.26314 41.0797 7.36101 41.7306C7.46587 42.3815 7.5183 43.1199 7.5183 43.9458V44.2712C7.5183 45.489 7.41693 46.5179 7.21421 47.3577C7.01848 48.1906 6.66545 48.824 6.15515 49.258C5.64484 49.6849 4.91783 49.8984 3.97411 49.8984H2.4327V57.1633H0ZM2.4327 47.8722H3.60711C4.02654 47.8722 4.34111 47.7602 4.55082 47.5362C4.76753 47.3053 4.91084 46.9273 4.98074 46.4024C5.05764 45.8705 5.09608 45.1566 5.09608 44.2607V43.9038C5.09608 42.7909 5.00521 41.9616 4.82345 41.4156C4.64869 40.8697 4.25722 40.5968 3.64905 40.5968H2.4327V47.8722Z" fill="white"></path>
<path d="M8.725 57.1633V38.686H14.5236V40.7542H11.1577V46.6753H14.3454V48.7225H11.1577V55.0951H14.597V57.1633H8.725Z" fill="white"></path>
<path d="M16.8418 57.1633V40.7542H14.7447V38.686H21.2354V40.7542H19.264V57.1633H16.8418Z" fill="white"></path>
<path d="M22.0646 57.1633V38.686H27.8632V40.7542H24.4973V46.6753H27.6849V48.7225H24.4973V55.0951H27.9366V57.1633H22.0646Z" fill="white"></path>
<path d="M29.3216 57.1633V38.686H33.5159C34.4876 38.686 35.2076 38.868 35.6759 39.232C36.1513 39.5889 36.4624 40.1243 36.6092 40.8382C36.756 41.5451 36.8294 42.4235 36.8294 43.4733C36.8294 44.5932 36.714 45.4785 36.4834 46.1294C36.2597 46.7733 35.8123 47.1968 35.1412 47.3997C35.4697 47.4557 35.7424 47.5957 35.9591 47.8197C36.1828 48.0366 36.3575 48.3726 36.4834 48.8275C36.6162 49.2755 36.7105 49.8704 36.7665 50.6123C36.8224 51.3471 36.8504 52.264 36.8504 53.3628C36.8504 53.4608 36.8504 53.6428 36.8504 53.9088C36.8504 54.1747 36.8504 54.4757 36.8504 54.8116C36.8573 55.1476 36.8643 55.4835 36.8713 55.8195C36.8853 56.1484 36.8993 56.4354 36.9133 56.6804C36.9342 56.9253 36.9587 57.0863 36.9867 57.1633H34.554C34.533 57.1143 34.512 56.9603 34.4911 56.7013C34.4771 56.4354 34.4631 56.0924 34.4491 55.6725C34.4351 55.2526 34.4246 54.7801 34.4177 54.2552C34.4177 53.7233 34.4177 53.1634 34.4177 52.5755C34.4177 51.9806 34.4177 51.3786 34.4177 50.7697C34.4177 50.1328 34.3827 49.6499 34.3128 49.321C34.2429 48.985 34.0996 48.754 33.8829 48.6281C33.6662 48.4951 33.3341 48.4146 32.8867 48.3866L31.7543 48.3236V57.1633H29.3216ZM31.7648 46.4864H33.0335C33.411 46.4864 33.6976 46.4094 33.8934 46.2554C34.0961 46.0944 34.2324 45.79 34.3023 45.342C34.3792 44.8941 34.4177 44.2327 34.4177 43.3578V43.2424C34.4177 42.5075 34.3827 41.9511 34.3128 41.5731C34.2429 41.1952 34.1031 40.9397 33.8934 40.8067C33.6906 40.6667 33.3796 40.5968 32.9601 40.5968H31.7648V46.4864Z" fill="white"></path>
<path d="M41.6851 57.3732C40.9302 57.3732 40.308 57.2438 39.8187 56.9848C39.3363 56.7258 38.9588 56.3549 38.6862 55.872C38.4136 55.389 38.2248 54.8116 38.12 54.1397C38.0151 53.4678 37.9627 52.7154 37.9627 51.8826V50.1503H40.301V52.019C40.301 53.1879 40.3884 54.0242 40.5632 54.5282C40.7449 55.0321 41.1189 55.2841 41.6851 55.2841C42.0696 55.2841 42.3562 55.1931 42.545 55.0111C42.7337 54.8291 42.856 54.5387 42.912 54.1397C42.9679 53.7408 42.9959 53.2124 42.9959 52.5545C42.9959 51.7846 42.8491 51.1092 42.5555 50.5283C42.2688 49.9404 41.8459 49.3559 41.2867 48.775L40.0074 47.4942C39.6509 47.1163 39.3084 46.7138 38.9798 46.2869C38.6582 45.853 38.3961 45.3665 38.1934 44.8276C37.9906 44.2887 37.8893 43.6763 37.8893 42.9904C37.8893 42.0455 37.9976 41.2337 38.2143 40.5548C38.431 39.8759 38.805 39.3579 39.3363 39.001C39.8746 38.6371 40.6261 38.4551 41.5908 38.4551C42.3387 38.4551 42.9434 38.5811 43.4048 38.833C43.8662 39.078 44.2192 39.4314 44.4639 39.8934C44.7085 40.3553 44.8763 40.9082 44.9672 41.5521C45.0581 42.196 45.1035 42.9169 45.1035 43.7148V44.8276H42.8176V43.5573C42.8176 42.8854 42.7861 42.329 42.7232 41.8881C42.6673 41.4401 42.552 41.1042 42.3772 40.8802C42.2024 40.6562 41.9403 40.5443 41.5908 40.5443C41.2622 40.5443 40.9966 40.6213 40.7938 40.7752C40.5911 40.9292 40.4443 41.1672 40.3534 41.4891C40.2626 41.8041 40.2171 42.2135 40.2171 42.7174C40.2171 43.1654 40.2696 43.5398 40.3744 43.8408C40.4863 44.1417 40.654 44.4287 40.8777 44.7016C41.1084 44.9676 41.388 45.2756 41.7166 45.6255L43.0797 47.0848C43.7718 47.8197 44.3241 48.6141 44.7365 49.4679C45.1559 50.3218 45.3656 51.2947 45.3656 52.3865C45.3656 53.4433 45.2573 54.3427 45.0406 55.0846C44.8239 55.8265 44.4499 56.3934 43.9186 56.7853C43.3873 57.1773 42.6428 57.3732 41.6851 57.3732Z" fill="white"></path>
<path d="M50.2214 57.3732C49.2847 57.3732 48.5332 57.1703 47.9669 56.7643C47.4007 56.3584 46.9918 55.753 46.7401 54.9481C46.4885 54.1362 46.3626 53.1249 46.3626 51.9141V43.6413C46.3626 42.5775 46.4815 41.6606 46.7191 40.8907C46.9638 40.1138 47.3693 39.5154 47.9355 39.0955C48.5017 38.6685 49.2777 38.4551 50.2633 38.4551C51.0043 38.4551 51.616 38.5776 52.0983 38.8225C52.5877 39.0605 52.9722 39.4069 53.2518 39.8619C53.5314 40.3098 53.7271 40.8522 53.839 41.4891C53.9578 42.126 54.0172 42.8434 54.0172 43.6413V51.9141C54.0172 53.1249 53.8949 54.1362 53.6502 54.9481C53.4126 55.753 53.0141 56.3584 52.4549 56.7643C51.9026 57.1703 51.1581 57.3732 50.2214 57.3732ZM50.2214 55.2631C50.5989 55.2631 50.8855 55.1546 51.0812 54.9376C51.277 54.7206 51.4098 54.3672 51.4797 53.8773C51.5496 53.3873 51.5845 52.7399 51.5845 51.9351V43.5153C51.5845 42.5355 51.5006 41.8006 51.3329 41.3107C51.1651 40.8137 50.8086 40.5653 50.2633 40.5653C49.6971 40.5653 49.3126 40.8067 49.1099 41.2897C48.9072 41.7726 48.8058 42.511 48.8058 43.5048V51.9351C48.8058 52.7469 48.8408 53.3978 48.9107 53.8878C48.9806 54.3707 49.1169 54.7206 49.3196 54.9376C49.5293 55.1546 49.8299 55.2631 50.2214 55.2631Z" fill="white"></path>
<path d="M55.8741 57.1633V38.686H57.751L61.8719 50.6438L61.6622 45.426V38.686H63.8328V57.1633H62.0711L57.9817 44.9851L58.118 49.7199V57.1633H55.8741Z" fill="white"></path>
<path d="M70.5348 57.1633V40.7542H68.4377V38.686H74.9284V40.7542H72.9571V57.1633H70.5348Z" fill="white"></path>
<path d="M75.7576 57.1633V38.686H79.9519C80.9236 38.686 81.6436 38.868 82.112 39.232C82.5873 39.5889 82.8984 40.1243 83.0452 40.8382C83.192 41.5451 83.2654 42.4235 83.2654 43.4733C83.2654 44.5932 83.1501 45.4785 82.9194 46.1294C82.6957 46.7733 82.2483 47.1968 81.5772 47.3997C81.9057 47.4557 82.1784 47.5957 82.3951 47.8197C82.6188 48.0366 82.7935 48.3726 82.9194 48.8275C83.0522 49.2755 83.1466 49.8704 83.2025 50.6123C83.2584 51.3471 83.2864 52.264 83.2864 53.3628C83.2864 53.4608 83.2864 53.6428 83.2864 53.9088C83.2864 54.1747 83.2864 54.4757 83.2864 54.8116C83.2934 55.1476 83.3004 55.4835 83.3074 55.8195C83.3213 56.1484 83.3353 56.4354 83.3493 56.6804C83.3703 56.9253 83.3947 57.0863 83.4227 57.1633H80.99C80.969 57.1143 80.9481 56.9603 80.9271 56.7013C80.9131 56.4354 80.8991 56.0924 80.8851 55.6725C80.8712 55.2526 80.8607 54.7801 80.8537 54.2552C80.8537 53.7233 80.8537 53.1634 80.8537 52.5755C80.8537 51.9806 80.8537 51.3786 80.8537 50.7697C80.8537 50.1328 80.8187 49.6499 80.7488 49.321C80.6789 48.985 80.5356 48.754 80.3189 48.6281C80.1022 48.4951 79.7701 48.4146 79.3228 48.3866L78.1903 48.3236V57.1633H75.7576ZM78.2008 46.4864H79.4696C79.847 46.4864 80.1337 46.4094 80.3294 46.2554C80.5321 46.0944 80.6684 45.79 80.7383 45.342C80.8152 44.8941 80.8537 44.2327 80.8537 43.3578V43.2424C80.8537 42.5075 80.8187 41.9511 80.7488 41.5731C80.6789 41.1952 80.5391 40.9397 80.3294 40.8067C80.1267 40.6667 79.8156 40.5968 79.3962 40.5968H78.2008V46.4864Z" fill="white"></path>
<path d="M83.9583 57.1633L86.6846 38.686H89.7569L92.7034 57.1633H90.4175L89.9247 53.7303H86.737L86.2861 57.1633H83.9583ZM86.9887 51.7671H89.6416L88.2784 42.203H88.247L86.9887 51.7671Z" fill="white"></path>
<path d="M93.7319 57.1633V38.686H97.4858C98.4365 38.686 99.1845 38.882 99.7297 39.274C100.282 39.6659 100.673 40.2293 100.904 40.9642C101.142 41.6921 101.261 42.567 101.261 43.5888L101.271 51.7986C101.271 53.0304 101.142 54.0417 100.883 54.8326C100.632 55.6235 100.223 56.2114 99.6563 56.5964C99.0901 56.9743 98.3386 57.1633 97.4019 57.1633H93.7319ZM96.1646 55.2316H97.1922C97.5627 55.2316 97.8668 55.1546 98.1044 55.0006C98.3491 54.8396 98.5309 54.5527 98.6497 54.1397C98.7755 53.7268 98.8384 53.1319 98.8384 52.355L98.828 43.5888C98.828 42.518 98.6986 41.7516 98.44 41.2897C98.1883 40.8277 97.7619 40.5968 97.1607 40.5968H96.1646V55.2316Z" fill="white"></path>
<path d="M103.128 57.1633V38.686H108.927V40.7542H105.561V46.6753H108.748V48.7225H105.561V55.0951H109V57.1633H103.128Z" fill="white"></path>
<defs>
<filter id="filter0_d_20_2487" x="11.5613" y="0.889924" width="79.1489" height="34.3603" filterUnits="userSpaceOnUse" color-interpolation-filters="sRGB">
<feFlood flood-opacity="0" result="BackgroundImageFix"></feFlood>
<feColorMatrix in="SourceAlpha" type="matrix" values="0 0 0 0 0 0 0 0 0 0 0 0 0 0 0 0 0 0 127 0" result="hardAlpha"></feColorMatrix>
<feOffset dy="0.548837"></feOffset>
<feGaussianBlur stdDeviation="1.82946"></feGaussianBlur>
<feComposite in2="hardAlpha" operator="out"></feComposite>
<feColorMatrix type="matrix" values="0 0 0 0 0 0 0 0 0 0 0 0 0 0 0 0 0 0 0.2 0"></feColorMatrix>
<feBlend mode="normal" in2="BackgroundImageFix" result="effect1_dropShadow_20_2487"></feBlend>
<feBlend mode="normal" in="SourceGraphic" in2="effect1_dropShadow_20_2487" result="shape"></feBlend>
</filter>
<filter id="filter1_d_20_2487" x="11.1604" y="59.5705" width="80.9214" height="34.9121" filterUnits="userSpaceOnUse" color-interpolation-filters="sRGB">
<feFlood flood-opacity="0" result="BackgroundImageFix"></feFlood>
<feColorMatrix in="SourceAlpha" type="matrix" values="0 0 0 0 0 0 0 0 0 0 0 0 0 0 0 0 0 0 127 0" result="hardAlpha"></feColorMatrix>
<feOffset dy="-0.548837"></feOffset>
<feGaussianBlur stdDeviation="2.5155"></feGaussianBlur>
<feComposite in2="hardAlpha" operator="out"></feComposite>
<feColorMatrix type="matrix" values="0 0 0 0 0 0 0 0 0 0 0 0 0 0 0 0 0 0 0.2 0"></feColorMatrix>
<feBlend mode="normal" in2="BackgroundImageFix" result="effect1_dropShadow_20_2487"></feBlend>
<feBlend mode="normal" in="SourceGraphic" in2="effect1_dropShadow_20_2487" result="shape"></feBlend>
</filter>
<filter id="filter2_d_20_2487" x="29.6199" y="7.0618" width="67.7304" height="28.1884" filterUnits="userSpaceOnUse" color-interpolation-filters="sRGB">
<feFlood flood-opacity="0" result="BackgroundImageFix"></feFlood>
<feColorMatrix in="SourceAlpha" type="matrix" values="0 0 0 0 0 0 0 0 0 0 0 0 0 0 0 0 0 0 127 0" result="hardAlpha"></feColorMatrix>
<feOffset dy="0.548837"></feOffset>
<feGaussianBlur stdDeviation="1.82946"></feGaussianBlur>
<feComposite in2="hardAlpha" operator="out"></feComposite>
<feColorMatrix type="matrix" values="0 0 0 0 0 0 0 0 0 0 0 0 0 0 0 0 0 0 0.2 0"></feColorMatrix>
<feBlend mode="normal" in2="BackgroundImageFix" result="effect1_dropShadow_20_2487"></feBlend>
<feBlend mode="normal" in="SourceGraphic" in2="effect1_dropShadow_20_2487" result="shape"></feBlend>
</filter>
<filter id="filter3_d_20_2487" x="28.3284" y="59.5705" width="69.3408" height="28.6587" filterUnits="userSpaceOnUse" color-interpolation-filters="sRGB">
<feFlood flood-opacity="0" result="BackgroundImageFix"></feFlood>
<feColorMatrix in="SourceAlpha" type="matrix" values="0 0 0 0 0 0 0 0 0 0 0 0 0 0 0 0 0 0 127 0" result="hardAlpha"></feColorMatrix>
<feOffset dy="-0.548837"></feOffset>
<feGaussianBlur stdDeviation="2.5155"></feGaussianBlur>
<feComposite in2="hardAlpha" operator="out"></feComposite>
<feColorMatrix type="matrix" values="0 0 0 0 0 0 0 0 0 0 0 0 0 0 0 0 0 0 0.2 0"></feColorMatrix>
<feBlend mode="normal" in2="BackgroundImageFix" result="effect1_dropShadow_20_2487"></feBlend>
<feBlend mode="normal" in="SourceGraphic" in2="effect1_dropShadow_20_2487" result="shape"></feBlend>
</filter>
</defs>
</svg>

<svg width="109" height="95" fill="none" xmlns="http://www.w3.org/2000/svg"><g filter="url('#filter0_d_20_2487')"><path d="M87.051 18.436c-.76-.63-1.505-1.284-2.28-1.892-5.13-4.064-10.902-6.688-17.341-7.84a37.354 37.354 0 0 0-9.031-.522c-8.938.6-16.775 3.87-23.478 9.826-4.011 3.566-7.122 7.81-9.38 12.684-.124.265-.264.35-.551.35-3.142-.007-6.285-.007-9.427 0-.326 0-.427-.015-.271-.381 3.755-8.985 9.838-15.946 18.186-20.898 4.67-2.772 9.706-4.579 15.075-5.303 13.663-1.845 25.635 1.853 35.83 11.22.907.833 1.745 1.736 2.575 2.64.039.039.062.078.093.116Z" fill="#00B355"/></g><g filter="url('#filter1_d_20_2487')"><path d="M16.191 65.158h.388c3.163 0 6.327.008 9.498-.008.333 0 .496.102.66.39 3.287 6.006 7.823 10.829 13.614 14.451 4.513 2.829 9.413 4.651 14.685 5.415 8.444 1.223 16.453-.171 23.99-4.2a37.686 37.686 0 0 0 7.753-5.523c.086-.078.17-.156.272-.202-4.621 5.227-10.15 9.146-16.655 11.654-6.497 2.51-13.212 3.358-20.12 2.595-17.771-1.971-29.37-14.039-34.085-24.572Z" fill="#FF494B"/></g><g filter="url('#filter2_d_20_2487')"><path d="M33.279 22.63c2.614-3.056 5.67-5.567 9.13-7.578 4.282-2.487 8.882-4.085 13.793-4.623 11.31-1.24 21.193 2.011 29.586 9.737 3.243 2.986 5.795 6.51 7.773 10.463.202.406.202.406-.233.406-3.196 0-6.384 0-9.58.008-.264 0-.411-.078-.55-.312-4.826-8.163-11.792-13.535-21.023-15.586-10.72-2.385-20.317.18-28.702 7.314l-.194.171Z" fill="#FF494B"/></g><g filter="url('#filter3_d_20_2487')"><path d="M92.638 65.167c-5.917 9.736-14.246 16.024-25.413 17.962-13.33 2.312-24.598-1.922-33.866-11.69.163-.038.24.086.334.172 4.831 4.171 10.392 6.825 16.712 7.658 10.314 1.362 19.325-1.556 26.987-8.631 1.683-1.549 3.14-3.3 4.428-5.183.124-.18.225-.312.48-.304 3.351.008 6.693.008 10.044.008.062-.016.124-.008.294.008Z" fill="#00B355"/></g><path d="M0 57.163V38.686h3.932c.734 0 1.335.119 1.804.357a2.5 2.5 0 0 1 1.09 1.029c.259.455.437 1.008.535 1.659.105.65.157 1.389.157 2.215v.325c0 1.218-.101 2.247-.304 3.087-.196.833-.549 1.466-1.059 1.9-.51.427-1.237.64-2.18.64H2.432v7.265H0Zm2.433-9.29h1.174c.42 0 .734-.113.944-.337.217-.23.36-.609.43-1.134.077-.532.115-1.245.115-2.141v-.357c0-1.113-.09-1.942-.273-2.488-.174-.546-.566-.82-1.174-.82H2.433v7.276ZM8.725 57.163V38.686h5.799v2.068h-3.366v5.921h3.187v2.047h-3.187v6.373h3.439v2.068H8.725ZM16.842 57.163V40.754h-2.097v-2.068h6.49v2.068h-1.971v16.41h-2.422ZM22.065 57.163V38.686h5.798v2.068h-3.366v5.921h3.188v2.047h-3.188v6.373h3.44v2.068h-5.872ZM29.322 57.163V38.686h4.194c.972 0 1.692.182 2.16.546.475.357.786.892.933 1.606.147.707.22 1.585.22 2.635 0 1.12-.115 2.005-.346 2.656-.223.644-.67 1.068-1.342 1.27.329.057.601.197.818.42.224.218.398.554.524 1.008.133.449.228 1.043.284 1.785.055.735.083 1.652.083 2.75V54.813l.021 1.008c.014.328.028.615.042.86.021.245.046.406.074.483h-2.433c-.021-.049-.042-.203-.063-.462a70.869 70.869 0 0 1-.073-2.446V50.77c0-.637-.035-1.12-.105-1.449-.07-.336-.213-.567-.43-.693-.217-.133-.549-.213-.996-.241l-1.133-.063v8.84h-2.432Zm2.443-10.677h1.268c.378 0 .665-.077.86-.23.203-.162.34-.466.41-.914.076-.448.115-1.11.115-1.984v-.116c0-.734-.035-1.29-.105-1.669-.07-.378-.21-.633-.42-.766-.202-.14-.513-.21-.933-.21h-1.195v5.89ZM41.685 57.373c-.755 0-1.377-.13-1.866-.388a2.797 2.797 0 0 1-1.133-1.113c-.272-.483-.461-1.06-.566-1.732a14.716 14.716 0 0 1-.157-2.257V50.15H40.3v1.869c0 1.169.087 2.005.262 2.51.182.503.556.755 1.122.755.385 0 .671-.09.86-.273.189-.182.311-.472.367-.871.056-.4.084-.928.084-1.586 0-.77-.147-1.445-.44-2.026-.287-.588-.71-1.172-1.27-1.753l-1.279-1.28c-.356-.379-.699-.781-1.027-1.208a5.957 5.957 0 0 1-.787-1.46c-.202-.538-.304-1.15-.304-1.837 0-.945.109-1.756.325-2.435.217-.68.591-1.197 1.122-1.554.539-.364 1.29-.546 2.255-.546.748 0 1.352.126 1.814.378.461.245.814.598 1.059 1.06.245.462.412 1.015.503 1.66.091.643.136 1.364.136 2.162v1.113h-2.285v-1.27c0-.673-.032-1.229-.095-1.67-.056-.448-.171-.784-.346-1.008-.175-.224-.437-.336-.786-.336-.329 0-.594.077-.797.231-.203.154-.35.392-.44.714-.091.315-.137.725-.137 1.228 0 .448.053.823.157 1.124.112.3.28.588.504.86.23.267.51.575.839.925l1.363 1.459a9.491 9.491 0 0 1 1.657 2.383c.419.854.629 1.827.629 2.918 0 1.057-.109 1.957-.325 2.699-.217.742-.591 1.308-1.122 1.7-.532.392-1.276.588-2.234.588ZM50.221 57.373c-.936 0-1.688-.203-2.254-.609-.566-.406-.975-1.011-1.227-1.816-.252-.812-.377-1.823-.377-3.034v-8.273c0-1.063.118-1.98.356-2.75.245-.777.65-1.376 1.216-1.795.567-.427 1.343-.64 2.328-.64.741 0 1.353.122 1.835.366.49.238.874.585 1.154 1.04.28.448.475.99.587 1.627.119.637.178 1.354.178 2.152v8.273c0 1.21-.122 2.222-.367 3.034-.237.805-.636 1.41-1.195 1.816-.552.406-1.297.61-2.234.61Zm0-2.11c.378 0 .665-.108.86-.325.196-.217.329-.57.399-1.06.07-.49.105-1.138.105-1.943v-8.42c0-.98-.084-1.714-.252-2.204-.168-.497-.524-.746-1.07-.746-.566 0-.95.242-1.153.725-.203.483-.304 1.221-.304 2.215v8.43c0 .812.035 1.463.105 1.953.07.483.206.833.409 1.05.21.217.51.325.901.325ZM55.874 57.163V38.686h1.877l4.12 11.958-.209-5.218v-6.74h2.17v18.477h-1.76l-4.09-12.178.136 4.735v7.443h-2.244ZM70.535 57.163V40.754h-2.097v-2.068h6.49v2.068h-1.97v16.41h-2.423ZM75.758 57.163V38.686h4.194c.972 0 1.692.182 2.16.546.475.357.786.892.933 1.606.147.707.22 1.585.22 2.635 0 1.12-.115 2.005-.346 2.656-.223.644-.67 1.068-1.342 1.27.329.057.601.197.818.42.224.218.398.554.524 1.008.133.449.228 1.043.284 1.785.055.735.083 1.652.083 2.75V54.813l.021 1.008c.014.328.028.615.042.86.021.245.046.406.074.483H80.99c-.021-.049-.042-.203-.063-.462a72.405 72.405 0 0 1-.073-2.446V50.77c0-.637-.035-1.12-.105-1.449-.07-.336-.213-.567-.43-.693-.217-.133-.549-.213-.996-.241l-1.133-.063v8.84h-2.432ZM78.2 46.486h1.269c.377 0 .664-.077.86-.23.202-.162.338-.466.408-.914.077-.448.116-1.11.116-1.984v-.116c0-.734-.035-1.29-.105-1.669-.07-.378-.21-.633-.42-.766-.202-.14-.513-.21-.933-.21h-1.195v5.89ZM83.958 57.163l2.727-18.477h3.072l2.946 18.477h-2.285l-.493-3.433h-3.188l-.45 3.433h-2.329Zm3.03-5.396h2.654l-1.364-9.564h-.031l-1.258 9.564ZM93.732 57.163V38.686h3.754c.95 0 1.698.196 2.244.588.552.392.943.955 1.174 1.69.238.728.357 1.603.357 2.625l.01 8.21c0 1.231-.129 2.243-.388 3.034-.251.79-.66 1.378-1.227 1.763-.566.378-1.317.567-2.254.567h-3.67Zm2.433-1.931h1.027c.37 0 .675-.077.912-.231.245-.161.427-.448.546-.861.125-.413.188-1.008.188-1.785l-.01-8.766c0-1.071-.13-1.837-.388-2.3-.252-.461-.678-.692-1.28-.692h-.995v14.635ZM103.128 57.163V38.686h5.799v2.068h-3.366v5.921h3.187v2.047h-3.187v6.373H109v2.068h-5.872Z" fill="#fff"/><defs><filter id="filter0_d_20_2487" x="11.561" y=".89" width="79.149" height="34.36" filterUnits="userSpaceOnUse" color-interpolation-filters="sRGB"><feFlood flood-opacity="0" result="BackgroundImageFix"/><feColorMatrix in="SourceAlpha" values="0 0 0 0 0 0 0 0 0 0 0 0 0 0 0 0 0 0 127 0" result="hardAlpha"/><feOffset dy=".549"/><feGaussianBlur stdDeviation="1.829"/><feComposite in2="hardAlpha" operator="out"/><feColorMatrix values="0 0 0 0 0 0 0 0 0 0 0 0 0 0 0 0 0 0 0.2 0"/><feBlend in2="BackgroundImageFix" result="effect1_dropShadow_20_2487"/><feBlend in="SourceGraphic" in2="effect1_dropShadow_20_2487" result="shape"/></filter><filter id="filter1_d_20_2487" x="11.16" y="59.571" width="80.921" height="34.912" filterUnits="userSpaceOnUse" color-interpolation-filters="sRGB"><feFlood flood-opacity="0" result="BackgroundImageFix"/><feColorMatrix in="SourceAlpha" values="0 0 0 0 0 0 0 0 0 0 0 0 0 0 0 0 0 0 127 0" result="hardAlpha"/><feOffset dy="-.549"/><feGaussianBlur stdDeviation="2.515"/><feComposite in2="hardAlpha" operator="out"/><feColorMatrix values="0 0 0 0 0 0 0 0 0 0 0 0 0 0 0 0 0 0 0.2 0"/><feBlend in2="BackgroundImageFix" result="effect1_dropShadow_20_2487"/><feBlend in="SourceGraphic" in2="effect1_dropShadow_20_2487" result="shape"/></filter><filter id="filter2_d_20_2487" x="29.62" y="7.062" width="67.73" height="28.188" filterUnits="userSpaceOnUse" color-interpolation-filters="sRGB"><feFlood flood-opacity="0" result="BackgroundImageFix"/><feColorMatrix in="SourceAlpha" values="0 0 0 0 0 0 0 0 0 0 0 0 0 0 0 0 0 0 127 0" result="hardAlpha"/><feOffset dy=".549"/><feGaussianBlur stdDeviation="1.829"/><feComposite in2="hardAlpha" operator="out"/><feColorMatrix values="0 0 0 0 0 0 0 0 0 0 0 0 0 0 0 0 0 0 0.2 0"/><feBlend in2="BackgroundImageFix" result="effect1_dropShadow_20_2487"/><feBlend in="SourceGraphic" in2="effect1_dropShadow_20_2487" result="shape"/></filter><filter id="filter3_d_20_2487" x="28.328" y="59.571" width="69.341" height="28.659" filterUnits="userSpaceOnUse" color-interpolation-filters="sRGB"><feFlood flood-opacity="0" result="BackgroundImageFix"/><feColorMatrix in="SourceAlpha" values="0 0 0 0 0 0 0 0 0 0 0 0 0 0 0 0 0 0 127 0" result="hardAlpha"/><feOffset dy="-.549"/><feGaussianBlur stdDeviation="2.515"/><feComposite in2="hardAlpha" operator="out"/><feColorMatrix values="0 0 0 0 0 0 0 0 0 0 0 0 0 0 0 0 0 0 0.2 0"/><feBlend in2="BackgroundImageFix" result="effect1_dropShadow_20_2487"/><feBlend in="SourceGraphic" in2="effect1_dropShadow_20_2487" result="shape"/></filter></defs></svg>
